assets/responsive-support.svg

<svg xmlns="http://www.w3.org/2000/svg"  width="100" height="100" fill="none" viewBox="0 0 24 24">
  <path stroke="#1E293B" stroke-linecap="round" stroke-linejoin="round" stroke-width="1" d="M8.89286 4.75H6.06818C5.34017 4.75 4.75 5.34017 4.75 6.06818C4.75 13.3483 10.6517 19.25 17.9318 19.25C18.6598 19.25 19.25 18.6598 19.25 17.9318V15.1071L16.1429 13.0357L14.5317 14.6468C14.2519 14.9267 13.8337 15.0137 13.4821 14.8321C12.8858 14.524 11.9181 13.9452 10.9643 13.0357C9.98768 12.1045 9.41548 11.1011 9.12829 10.494C8.96734 10.1537 9.06052 9.76091 9.32669 9.49474L10.9643 7.85714L8.89286 4.75Z"/>
</svg>

<svg xmlns="http://www.w3.org/2000/svg" width="70" height="70" fill="none" viewBox="0 0 24 24"><path stroke="#94A3B8" stroke-linecap="round" stroke-linejoin="round" d="M8.893 4.75H6.068c-.728 0-1.318.59-1.318 1.318 0 7.28 5.902 13.182 13.182 13.182.728 0 1.318-.59 1.318-1.318v-2.825l-3.107-2.071-1.611 1.61c-.28.28-.698.368-1.05.186a11.093 11.093 0 0 1-2.518-1.796 8.726 8.726 0 0 1-1.836-2.542c-.16-.34-.067-.733.199-1l1.637-1.637L8.893 4.75Z"/></svg>
